assets/img/icons/duotone-icons/Communication/Reply.svg

<?xml version="1.0" encoding="UTF-8"?>
<svg width="24px" height="24px" viewBox="0 0 24 24" version="1.1" xmlns="http://www.w3.org/2000/svg" xmlns:xlink="http://www.w3.org/1999/xlink">
    <!-- Generator: Sketch 52.2 (67145) - http://www.bohemiancoding.com/sketch -->
    <title>Stockholm-icons / Communication / Reply</title>
    <desc>Created with Sketch.</desc>
    <g id="Stockholm-icons-/-Communication-/-Reply" stroke="none" stroke-width="1" fill="none" fill-rule="evenodd">
        <rect id="bound" x="0" y="0" width="24" height="24"></rect>
        <path d="M21.4451171,17.7910156 C21.4451171,16.9707031 21.6208984,13.7333984 19.0671874,11.1650391 C17.3484374,9.43652344 14.7761718,9.13671875 11.6999999,9 L11.6999999,4.69307548 C11.6999999,4.27886191 11.3642135,3.94307548 10.9499999,3.94307548 C10.7636897,3.94307548 10.584049,4.01242035 10.4460626,4.13760526 L3.30599678,10.6152626 C2.99921905,10.8935795 2.976147,11.3678924 3.2544639,11.6746702 C3.26907199,11.6907721 3.28437331,11.7062312 3.30032452,11.7210037 L10.4403903,18.333467 C10.7442966,18.6149166 11.2188212,18.596712 11.5002708,18.2928057 C11.628669,18.1541628 11.6999999,17.9721616 11.6999999,17.7831961 L11.6999999,13.5 C13.6531249,13.5537109 15.0443703,13.6779456 16.3083984,14.0800781 C18.1284272,14.6590944 19.5349747,16.3018455 20.5280411,19.0083314 L20.5280247,19.0083374 C20.6363903,19.3036749 20.9175496,19.5 21.2321404,19.5 L21.4499999,19.5 C21.4499999,19.0068359 21.4451171,18.2255859 21.4451171,17.7910156 Z" id="Shape" fill="#335EEA"></path>
    </g>
</svg>

<svg width="24" height="24" viewBox="0 0 24 24" xmlns="http://www.w3.org/2000/svg"><g fill="none" fill-rule="evenodd"><path d="M0 0h24v24H0z"/><path d="M21.445 17.791c0-.82.176-4.058-2.378-6.626C17.348 9.437 14.777 9.137 11.7 9V4.693a.75.75 0 00-1.254-.555l-7.14 6.477a.75.75 0 00-.006 1.106l7.14 6.612a.75.75 0 001.26-.55V13.5c1.953.054 3.344.178 4.608.58 1.82.58 3.227 2.222 4.22 4.928a.75.75 0 00.704.492h.218c0-.493-.005-1.274-.005-1.709z" fill="#335EEA"/></g></svg>
